X: 1
T: Millbrae
C: Ronald Cooper (1934-1982)
Z: John Chambers <jc:trillian.mit.edu>
R: reel
M: C|
L: 1/8
K: A
af \
| "A"eA ~A2 eAce | "D"fedf "A"eaga | "Bm"fedc [1,3 dcBA | "E7"G2 B2 B2 :|\
                                              [2,4 "E7"dBed | "A"c2 A2 A2 :|
a2 \
| "E7"g{a}beg begb | "A"aAce agfe | "D"fedc [1 dcBA | "E7"G2 B2 B2 :|\
                                               [2 "E7"dBed | "A"c2 A2 A2 |]
a2 \
| "E7"g{a}beg begb | "A"aAce agfe | "D"fedc dcBA | "E7"G2 B2 B2 ||
af \
| "A"eA ~A2 eAce | "D"fedf "A"eaga | "Bm"fedc "E7"dBed | "A"c2 A2 A2 |]

%%sep 1 1 500

